svg/color/hygon.svg

<svg width="40" height="40" viewBox="0 0 40 40" fill="none" xmlns="http://www.w3.org/2000/svg">
<g clip-path="url(#clip0_822_4707)">
<path d="M20 0C31.0457 0 40 8.9543 40 20C40 31.0457 31.0457 40 20 40C8.95431 40 7.90517e-06 31.0457 0 20C6.58765e-07 8.95431 8.95431 1.97595e-06 20 0Z" fill="#D5E5CF"/>
<path d="M26 6C30.4183 6 34 9.58172 34 14V26C34 30.4183 30.4183 34 26 34H14C9.58172 34 6 30.4183 6 26V14C6 9.58172 9.58172 6 14 6H26Z" fill="#004830"/>
<g clip-path="url(#clip1_822_4707)">
<path d="M10 18.8091V18.0674H10.9103V18.8091H10ZM10 22.1468V19.1328H10.9103V22.1468H10ZM26.2501 20.8792H24.2003C24.2408 21.1961 24.4701 21.4456 24.9218 21.4456C25.1983 21.4523 25.4612 21.3444 25.65 21.1421L26.1962 21.7153C25.913 22.0389 25.468 22.2345 24.9218 22.2345C23.8767 22.2345 23.2563 21.6209 23.2563 20.6229C23.2563 19.7059 23.8497 19.0384 24.7937 19.0384C25.7377 19.0384 26.2839 19.625 26.2839 20.4948C26.2906 20.6229 26.2771 20.7511 26.2501 20.8792ZM25.3736 20.2993C25.3534 19.9891 25.1511 19.7666 24.8004 19.7666C24.4498 19.7666 24.2475 19.9891 24.2003 20.2993H25.3736ZM27.8077 22.221C27.356 22.221 26.8031 22.0996 26.3985 21.7018L26.9177 21.1287C27.1604 21.3579 27.4773 21.486 27.8077 21.4928C28.1246 21.4928 28.2662 21.4051 28.2662 21.277C28.2662 21.1759 28.1988 21.1219 28.0235 21.068C27.8684 21.0208 27.6324 20.9803 27.4301 20.9196C26.9919 20.7915 26.5536 20.6027 26.5536 19.9689C26.5536 19.3823 27.0188 19.0249 27.801 19.0249C28.2325 19.0249 28.718 19.1126 29.1293 19.4834L28.6034 20.0431C28.3741 19.8138 28.0505 19.7329 27.7943 19.7329C27.5583 19.7329 27.4301 19.8206 27.4301 19.9352C27.4301 20.0296 27.4976 20.0903 27.6796 20.151C27.8347 20.1982 28.0909 20.2521 28.2865 20.306C28.7045 20.4274 29.1428 20.6095 29.1428 21.2096C29.1428 21.8973 28.5832 22.221 27.8077 22.221ZM13.7423 19.2474C13.513 18.971 13.1691 18.8226 12.8117 18.8294C12.4274 18.8294 12.2251 18.971 12.2251 19.1732C12.2251 19.443 12.5286 19.5374 13.1152 19.7059C13.7557 19.888 14.484 20.097 14.484 20.9601C14.484 21.8232 13.776 22.221 12.8927 22.221C12.1442 22.221 11.5374 22.0052 11.1395 21.4591L11.8206 20.8859C12.0835 21.2433 12.4746 21.3849 12.8792 21.3849C13.3579 21.3849 13.5332 21.2163 13.5332 21.0343C13.5332 20.7645 13.2568 20.7039 12.5825 20.5083C11.8947 20.3128 11.2946 20.0431 11.2946 19.207C11.2946 18.4787 11.8812 18 12.8455 18C13.4523 18 14.012 18.1618 14.4165 18.681L13.7423 19.2474ZM22.9192 19.0721C23.0945 19.0654 23.2631 19.1395 23.3777 19.2676L23.0136 20.0566C22.9259 19.9891 22.8113 19.9487 22.6967 19.9554C22.4607 19.9554 22.2652 20.1577 22.2652 20.5353V22.1468H21.3414V19.1328H22.2449V19.5508C22.4068 19.2609 22.6158 19.0721 22.9192 19.0721ZM17.5924 20.1105V22.1401H16.6821V20.4409C16.6821 20.1172 16.5135 19.915 16.2034 19.915C15.8932 19.915 15.6909 20.1105 15.6909 20.4544V22.1468H14.7874V18.0674H15.6977V19.5306C15.9134 19.2339 16.2506 19.0586 16.6079 19.0654C17.1676 19.0721 17.5924 19.443 17.5924 20.1105ZM21.0447 21.4456V22.0861C20.8761 22.1536 20.6941 22.1873 20.512 22.1873C20.2625 22.1873 20.0063 22.1064 19.8917 21.8097C19.6961 22.0389 19.3253 22.2075 18.9072 22.2075C18.3004 22.2075 17.9026 21.8906 17.9026 21.2837C17.9026 20.6904 18.3746 20.3398 19.096 20.3398C19.3388 20.3398 19.5748 20.3735 19.8108 20.4274V20.3263C19.8108 19.9891 19.622 19.7868 19.2242 19.7868C18.9544 19.7936 18.6982 19.9015 18.5027 20.0835L18.0037 19.5036C18.3004 19.2272 18.7859 19.0249 19.3455 19.0249C20.2019 19.0249 20.7211 19.4497 20.7211 20.2386V21.2972C20.7211 21.4119 20.775 21.4658 20.8964 21.4658C20.9436 21.4658 20.9975 21.4591 21.0447 21.4456ZM19.8108 20.9264C19.6422 20.8859 19.4736 20.8589 19.2983 20.8589C18.9814 20.8589 18.8263 21.014 18.8263 21.2298C18.8263 21.4321 18.9612 21.5804 19.2444 21.5804C19.5411 21.5804 19.804 21.3984 19.804 21.1219V20.9264H19.8108ZM29.9991 21.8771C30.0059 21.958 29.9722 22.0389 29.9182 22.0996C29.8575 22.1603 29.7834 22.1873 29.7025 22.1805C29.5137 22.1805 29.4058 22.0592 29.4058 21.8771C29.4058 21.6951 29.5137 21.5737 29.7025 21.5737C29.7834 21.5669 29.8643 21.5939 29.9182 21.6546C29.9722 21.7153 29.9991 21.7962 29.9991 21.8771ZM29.9452 21.8771C29.9519 21.7827 29.9115 21.6883 29.8306 21.6344C29.7497 21.5804 29.6485 21.5804 29.5676 21.6344C29.4867 21.6883 29.4395 21.776 29.453 21.8771C29.453 22.0457 29.5541 22.1401 29.7025 22.1401C29.8508 22.1401 29.9452 22.0457 29.9452 21.8771ZM29.7564 21.9108L29.8103 22.0187H29.7564L29.7025 21.9176H29.635V22.0187H29.5811V21.722H29.7025C29.7766 21.722 29.8103 21.7625 29.8103 21.8164C29.8171 21.8569 29.7969 21.8973 29.7564 21.9108ZM29.7631 21.8232C29.7631 21.7895 29.7429 21.7692 29.7092 21.7692H29.6418V21.8771H29.7025C29.7362 21.8704 29.7631 21.8569 29.7631 21.8232Z" fill="white"/>
</g>
</g>
<defs>
<clipPath id="clip0_822_4707">
<rect width="40" height="40" fill="white"/>
</clipPath>
<clipPath id="clip1_822_4707">
<rect width="20" height="20" fill="white" transform="translate(10 10)"/>
</clipPath>
</defs>
</svg>

<svg xmlns="http://www.w3.org/2000/svg" width="40" height="40" fill="none" viewBox="0 0 40 40"><g clip-path="url(#hygon_svg-a)"><path fill="#D5E5CF" d="M20 0c11.046 0 20 8.954 20 20s-8.954 20-20 20S0 31.046 0 20 8.954 0 20 0"/><path fill="#004830" d="M26 6a8 8 0 0 1 8 8v12a8 8 0 0 1-8 8H14a8 8 0 0 1-8-8V14a8 8 0 0 1 8-8z"/><g clip-path="url(#hygon_svg-b)"><path fill="#fff" d="M10 18.81v-.743h.91v.742zm0 3.337v-3.014h.91v3.014zm16.25-1.268H24.2c.04.317.27.567.722.567a.96.96 0 0 0 .728-.304l.546.573c-.283.324-.728.52-1.274.52-1.045 0-1.666-.614-1.666-1.612 0-.917.594-1.585 1.538-1.585s1.49.587 1.49 1.457c.007.128-.007.256-.034.384m-.876-.58c-.02-.31-.223-.532-.574-.532-.35 0-.553.222-.6.532zm2.434 1.922c-.452 0-1.005-.121-1.41-.52l.52-.572c.242.229.56.357.89.364.317 0 .458-.088.458-.216 0-.101-.067-.155-.242-.209-.156-.047-.392-.088-.594-.148-.438-.129-.876-.317-.876-.951 0-.587.465-.944 1.247-.944.432 0 .917.088 1.328.458l-.526.56c-.229-.23-.553-.31-.809-.31-.236 0-.364.088-.364.202 0 .095.068.155.25.216.155.047.41.101.607.155.418.121.856.303.856.904 0 .687-.56 1.011-1.335 1.011m-14.066-2.974a1.17 1.17 0 0 0-.93-.418c-.385 0-.587.142-.587.344 0 .27.304.364.89.533.64.182 1.369.391 1.369 1.254s-.708 1.261-1.591 1.261c-.749 0-1.356-.216-1.754-.762l.682-.573c.263.357.654.499 1.058.499.479 0 .654-.169.654-.35 0-.27-.276-.331-.95-.527-.688-.195-1.288-.465-1.288-1.301 0-.728.586-1.207 1.55-1.207.607 0 1.167.162 1.571.681zm9.177-.175a.59.59 0 0 1 .459.196l-.364.789a.48.48 0 0 0-.317-.102c-.236 0-.432.203-.432.58v1.612h-.924v-3.014h.904v.418c.162-.29.37-.479.674-.479m-5.327 1.038v2.03h-.91v-1.7c0-.323-.168-.525-.479-.525s-.512.195-.512.54v1.692h-.904v-4.08h.91v1.464c.216-.297.554-.472.91-.466.56.007.985.378.985 1.045m3.453 1.336v.64c-.169.068-.35.101-.533.101-.25 0-.506-.08-.62-.377-.196.229-.567.398-.985.398-.607 0-1.004-.317-1.004-.924 0-.594.472-.944 1.193-.944.243 0 .479.034.715.087v-.1c0-.338-.189-.54-.587-.54-.27.007-.526.114-.721.297l-.5-.58c.297-.277.783-.48 1.343-.48.856 0 1.375.426 1.375 1.215v1.058c0 .115.054.169.175.169a.6.6 0 0 0 .149-.02m-1.234-.52a2.2 2.2 0 0 0-.513-.067c-.317 0-.472.155-.472.37 0 .203.135.351.418.351.297 0 .56-.182.56-.458v-.196zm10.188.951a.3.3 0 0 1-.08.223.27.27 0 0 1-.216.08c-.19 0-.297-.12-.297-.303 0-.182.108-.303.297-.303.08-.007.161.02.215.08a.34.34 0 0 1 .081.223m-.054 0a.27.27 0 0 0-.114-.243.23.23 0 0 0-.263 0 .25.25 0 0 0-.115.243c0 .169.101.263.25.263.148 0 .242-.094.242-.263m-.189.034.054.108h-.054l-.053-.101h-.068v.1h-.054v-.296h.122c.074 0 .107.04.107.094a.083.083 0 0 1-.054.095m.007-.088q-.002-.052-.054-.054h-.067v.108h.06c.034-.007.061-.02.061-.054"/></g></g><defs><clipPath id="hygon_svg-a"><path fill="#fff" d="M0 0h40v40H0z"/></clipPath><clipPath id="hygon_svg-b"><path fill="#fff" d="M10 10h20v20H10z"/></clipPath></defs></svg>
